resources/haticons/SVG/terminal.svg

<!-- Generated by IcoMoon.io -->
<svg version="1.1" xmlns="http://www.w3.org/2000/svg" width="24" height="24" viewBox="0 0 24 24">
<title>terminal</title>
<path d="M0 1.5v21h24v-21h-24zM22.5 21h-21v-18h21v18zM21 4.5h-18v15h18v-15zM10.5 12h-1.5v1.5h-1.5v1.5h-1.5v-1.5h1.5v-1.5h1.5v-1.5h-1.5v-1.5h-1.5v-1.5h1.5v1.5h1.5v1.5h1.5v1.5zM16.5 15h-4.5v-1.5h4.5v1.5z"></path>
</svg>

<svg xmlns="http://www.w3.org/2000/svg" width="24" height="24"><path d="M0 1.5v21h24v-21H0zM22.5 21h-21V3h21v18zM21 4.5H3v15h18v-15zM10.5 12H9v1.5H7.5V15H6v-1.5h1.5V12H9v-1.5H7.5V9H6V7.5h1.5V9H9v1.5h1.5V12zm6 3H12v-1.5h4.5V15z"/></svg>
